T: Kick The World Before Me
M: 9/8
L: 1/8
K: Amin
e| f2 d ecA AcA | f2 d edc d2 e | f2 d ecA AcA | fga gre d2 :||:e| f2 f faf ege | f2 f faf g2 e | f2 f faf ege | fed ecA d2 :|
